src/images/logo-mobile.svg

<svg width="349" height="422" viewBox="0 0 349 422" fill="none" xmlns="http://www.w3.org/2000/svg">
<path d="M349 0H309.62L296 62.64H295.65L279.95 0H248.84L232.94 62.76H232.59L217.44 0H120.31V37.72C112.91 14.58 92.88 0.17 65.9 0.17H12.17V117.53H0L44.77 187V236.84H12.63V367.24H167.5V316.31H167.9L195.62 367.24H248.83L243.26 359.09C244.75 359.95 246.26 360.7 248.08 361.62C259.56 367.19 270.75 370 282.23 370C314.55 370 337.62 349.85 337.62 321.65C337.62 309.88 334.17 301.1 326.62 294.09C324.182 291.676 321.321 289.73 318.18 288.35C316.821 287.705 315.422 287.151 313.99 286.69C310.78 285.31 304.29 283.93 292.99 281.92L291.99 281.69C284.36 280.31 280.34 277.1 280.34 272.27C280.34 267.68 283.96 265.32 291.02 265.32C299.63 265.32 306.46 267.32 320.52 273.47L332.12 243.1C321.56 238.33 313.7 235.52 306.17 234.1V148H337.45V117.53H316.91L344.12 18.31L349 0ZM269.84 236.1C252.73 241.21 240.84 252.35 236.6 267.56C234.71 254.99 227.7 246.03 216.05 241.15H242.34V148H269.9V236.1H269.84ZM152.8 73.44H183.22V44.38H152.8V29.23H189.31L210 117.53H200.3V178.28H199.9L165.46 117.82H194.85V88.77H152.85V73.44H152.8ZM120.31 80V117.44H82.08L65.78 151L49.65 117.82H66.41C93.1 117.82 113 103.24 120.31 80ZM52.75 33.36H59.58C72.78 33.36 81.58 43.64 81.58 59.14C81.58 67.98 79.4 74.47 74.92 78.78C71.3 82.22 64.99 84.92 60.28 84.92H52.75V33.36ZM58.43 335.09V318.09H99V285.94H58.43V269.17H106V236.85H87V186.61L121.9 132.61V241.15H122.47V335.08L58.43 335.09ZM175.87 293.75H167.2V266.59L167.43 266.36H175.06C185.28 266.36 191.53 271.59 191.53 279.91C191.53 288.23 185.35 293.75 175.88 293.75H175.87ZM190.97 236.85H164.34V180.41H164.74L197.23 237.08C195.16 236.91 193.1 236.85 191 236.85H190.97ZM281.09 317.29C291.09 319.07 294.58 321.29 294.58 325.85C294.58 331.85 288.58 335.85 279.31 335.85C271.91 335.85 265.65 334.07 258.64 330.45C253.64 327.64 250.64 325.45 242.4 318.85L234 345.71L208.63 308.91C213.326 307.443 217.834 305.429 222.06 302.91C228.452 299.144 233.233 293.157 235.49 286.09C236.75 293.04 240.08 299.41 244.79 303.43C251.22 309.23 263.27 314 275.9 316.18L281.09 317.29ZM250.38 117.53L264.62 50.7H265L280.1 117.48H250.38V117.53Z" fill="#00E4E1"/>
<path d="M15.9237 399H24.3837V397.96H17.0637V392.68H24.2437V391.64H17.0637V386.7H24.3837V385.66H15.9237V399Z" fill="#ABABAB"/>
<path d="M44.6528 399H46.0728L40.7128 392.14L45.7728 385.66H44.3328L39.9928 391.32L35.6728 385.66H34.2128L39.2928 392.16L33.9128 399H35.3528L39.9928 392.98L44.6528 399Z" fill="#ABABAB"/>
<path d="M56.1034 399H57.2434V393.46H61.1034C63.6434 393.46 65.1234 391.66 65.1234 389.56C65.1234 387.46 63.6634 385.66 61.1034 385.66H56.1034V399ZM63.9234 389.56C63.9234 391.24 62.7434 392.42 60.9834 392.42H57.2434V386.7H60.9834C62.7434 386.7 63.9234 387.88 63.9234 389.56Z" fill="#ABABAB"/>
<path d="M75.5292 399H83.9892V397.96H76.6692V392.68H83.8492V391.64H76.6692V386.7H83.9892V385.66H75.5292V399Z" fill="#ABABAB"/>
<path d="M102.638 399H104.018L100.158 393.4C102.138 393.32 103.858 391.98 103.858 389.56C103.858 387.12 102.098 385.66 99.7982 385.66H94.8182V399H95.9582V393.48H98.8982L102.638 399ZM102.658 389.56C102.658 391.24 101.458 392.44 99.6982 392.44H95.9582V386.7H99.6982C101.458 386.7 102.658 387.88 102.658 389.56Z" fill="#ABABAB"/>
<path d="M114.693 399H115.833V385.66H114.693V399Z" fill="#ABABAB"/>
<path d="M127.146 399H135.606V397.96H128.286V392.68H135.466V391.64H128.286V386.7H135.606V385.66H127.146V399Z" fill="#ABABAB"/>
<path d="M155.975 399H157.095V385.66H155.955V397.02L147.595 385.66H146.435V399H147.575V387.48L155.975 399Z" fill="#ABABAB"/>
<path d="M174.64 399.24C176.8 399.24 178.36 398.32 179.54 396.86L178.58 396.26C177.74 397.42 176.28 398.2 174.64 398.2C171.54 398.2 169.12 395.78 169.12 392.34C169.12 388.86 171.54 386.48 174.64 386.48C176.28 386.48 177.74 387.26 178.58 388.42L179.54 387.8C178.4 386.38 176.8 385.44 174.64 385.44C170.9 385.44 167.92 388.24 167.92 392.34C167.92 396.44 170.9 399.24 174.64 399.24Z" fill="#ABABAB"/>
<path d="M189.857 399H198.317V397.96H190.997V392.68H198.177V391.64H190.997V386.7H198.317V385.66H189.857V399Z" fill="#ABABAB"/>
<path d="M222.322 399H223.462V385.66H222.322V399Z" fill="#ABABAB"/>
<path d="M234.035 397.12C235.055 398.36 236.715 399.24 238.915 399.24C242.515 399.24 243.655 397.18 243.655 395.46C243.655 392.76 241.295 392.08 239.135 391.46C237.315 390.98 235.655 390.52 235.655 388.94C235.655 387.5 236.995 386.48 238.775 386.48C240.275 386.48 241.635 387 242.595 388.16L243.355 387.32C242.315 386.14 240.835 385.44 238.835 385.44C236.415 385.44 234.455 386.82 234.455 389C234.455 391.46 236.695 392.06 238.795 392.64C240.675 393.14 242.455 393.66 242.455 395.54C242.455 396.68 241.675 398.2 238.935 398.2C237.035 398.2 235.635 397.26 234.775 396.26L234.035 397.12Z" fill="#ABABAB"/>
<path d="M144.92 421H153.38V419.96H146.06V414.68H153.24V413.64H146.06V408.7H153.38V407.66H144.92V421Z" fill="#ABABAB"/>
<path d="M168.309 421H169.729L175.189 407.66H173.869L169.009 419.72L164.169 407.66H162.849L168.309 421Z" fill="#ABABAB"/>
<path d="M185.158 421H193.618V419.96H186.298V414.68H193.478V413.64H186.298V408.7H193.618V407.66H185.158V421Z" fill="#ABABAB"/>
<path d="M212.267 421H213.647L209.787 415.4C211.767 415.32 213.487 413.98 213.487 411.56C213.487 409.12 211.727 407.66 209.427 407.66H204.447V421H205.587V415.48H208.527L212.267 421ZM212.287 411.56C212.287 413.24 211.087 414.44 209.327 414.44H205.587V408.7H209.327C211.087 408.7 212.287 409.88 212.287 411.56Z" fill="#ABABAB"/>
<path d="M227.969 421H229.129V415.3L234.429 407.66H233.049L228.549 414.22L224.049 407.66H222.669L227.969 415.3V421Z" fill="#ABABAB"/>
<path d="M247.792 421H248.952V408.7H253.312V407.66H243.432V408.7H247.792V421Z" fill="#ABABAB"/>
<path d="M273.282 421H274.442V407.66H273.282V413.62H264.822V407.66H263.682V421H264.822V414.66H273.282V421Z" fill="#ABABAB"/>
<path d="M285.744 421H286.884V407.66H285.744V421Z" fill="#ABABAB"/>
<path d="M307.737 421H308.857V407.66H307.717V419.02L299.357 407.66H298.197V421H299.337V409.48L307.737 421Z" fill="#ABABAB"/>
<path d="M319.682 414.34C319.682 418.46 322.702 421.26 326.442 421.26C328.542 421.26 330.322 420.36 331.502 419.04V414.38H325.322V415.4H330.362V418.6C329.622 419.34 328.222 420.22 326.442 420.22C323.302 420.22 320.882 417.78 320.882 414.34C320.882 410.86 323.302 408.48 326.442 408.48C328.142 408.48 329.662 409.22 330.602 410.34L331.462 409.72C330.242 408.32 328.642 407.44 326.442 407.44C322.702 407.44 319.682 410.22 319.682 414.34Z" fill="#ABABAB"/>
</svg>

<?xml version="1.0" encoding="utf-8"?>
<!-- Generator: Adobe Illustrator 21.1.0, SVG Export Plug-In . SVG Version: 6.00 Build 0)  -->
<svg version="1.1" id="Layer_1" xmlns="http://www.w3.org/2000/svg" xmlns:xlink="http://www.w3.org/1999/xlink" x="0px" y="0px"
	 viewBox="0 0 349 422" style="enable-background:new 0 0 349 422;" xml:space="preserve">
<style type="text/css">
	.st0{fill:#00E4E1;}
	.st1{fill:#ABABAB;}
</style>
<path class="st0" d="M349,0h-39.4L296,62.6h-0.4L280,0h-31.1l-15.9,62.8h-0.4L217.4,0h-97.1v37.7C112.9,14.6,92.9,0.2,65.9,0.2H12.2
	v117.4H0L44.8,187v49.8H12.6v130.4h154.9v-50.9h0.4l27.7,50.9h53.2l-5.6-8.1c1.5,0.9,3,1.6,4.8,2.5c11.5,5.6,22.7,8.4,34.2,8.4
	c32.3,0,55.4-20.1,55.4-48.4c0-11.8-3.4-20.5-11-27.6c-2.4-2.4-5.3-4.4-8.4-5.7c-1.4-0.6-2.8-1.2-4.2-1.7c-3.2-1.4-9.7-2.8-21-4.8
	l-1-0.2c-7.6-1.4-11.6-4.6-11.6-9.4c0-4.6,3.6-6.9,10.7-6.9c8.6,0,15.4,2,29.5,8.1l11.6-30.4c-10.6-4.8-18.4-7.6-25.9-9V148h31.3
	v-30.5h-20.5l27.2-99.2L349,0z M269.8,236.1c-17.1,5.1-29,16.2-33.2,31.5c-1.9-12.6-8.9-21.5-20.6-26.4h26.3V148h27.6L269.8,236.1
	L269.8,236.1z M152.8,73.4h30.4V44.4h-30.4V29.2h36.5l20.7,88.3h-9.7v60.8h-0.4l-34.4-60.5h29.4V88.8h-42L152.8,73.4L152.8,73.4z
	 M120.3,80v37.4H82.1L65.8,151l-16.1-33.2h16.8C93.1,117.8,113,103.2,120.3,80z M52.8,33.4h6.8c13.2,0,22,10.3,22,25.8
	c0,8.8-2.2,15.3-6.7,19.6c-3.6,3.4-9.9,6.1-14.6,6.1h-7.5V33.4z M58.4,335.1v-17H99v-32.1H58.4v-16.8H106v-32.3H87v-50.2l34.9-54
	v108.5h0.6v93.9L58.4,335.1z M175.9,293.8h-8.7v-27.2l0.2-0.2h7.6c10.2,0,16.5,5.2,16.5,13.6S185.4,293.8,175.9,293.8L175.9,293.8z
	 M191,236.9h-26.6v-56.4h0.4l32.5,56.7C195.2,236.9,193.1,236.9,191,236.9L191,236.9z M281.1,317.3c10,1.8,13.5,4,13.5,8.6
	c0,6-6,10-15.3,10c-7.4,0-13.7-1.8-20.7-5.4c-5-2.8-8-5-16.2-11.6l-8.4,26.9l-25.4-36.8c4.7-1.5,9.2-3.5,13.4-6
	c6.4-3.8,11.2-9.8,13.4-16.8c1.3,7,4.6,13.3,9.3,17.3c6.4,5.8,18.5,10.6,31.1,12.8L281.1,317.3z M250.4,117.5l14.2-66.8h0.4
	l15.1,66.8L250.4,117.5L250.4,117.5z"/>
<path class="st1" d="M15.9,399h8.5v-1h-7.3v-5.3h7.2v-1h-7.2v-4.9h7.3v-1h-8.5V399z"/>
<path class="st1" d="M44.7,399h1.4l-5.4-6.9l5.1-6.5h-1.4l-4.3,5.7l-4.3-5.7h-1.5l5.1,6.5l-5.4,6.8h1.4l4.6-6L44.7,399z"/>
<path class="st1" d="M56.1,399h1.1v-5.5h3.9c2.5,0,4-1.8,4-3.9s-1.5-3.9-4-3.9h-5V399z M63.9,389.6c0,1.7-1.2,2.9-2.9,2.9h-3.7v-5.7
	H61C62.7,386.7,63.9,387.9,63.9,389.6z"/>
<path class="st1" d="M75.5,399H84v-1h-7.3v-5.3h7.2v-1h-7.2v-4.9H84v-1h-8.5V399z"/>
<path class="st1" d="M102.6,399h1.4l-3.9-5.6c2-0.1,3.7-1.4,3.7-3.8c0-2.4-1.8-3.9-4.1-3.9h-5V399H96v-5.5h2.9L102.6,399z
	 M102.7,389.6c0,1.7-1.2,2.9-3,2.9H96v-5.7h3.7C101.5,386.7,102.7,387.9,102.7,389.6z"/>
<path class="st1" d="M114.7,399h1.1v-13.3h-1.1V399z"/>
<path class="st1" d="M127.1,399h8.5v-1h-7.3v-5.3h7.2v-1h-7.2v-4.9h7.3v-1h-8.5V399z"/>
<path class="st1" d="M156,399h1.1v-13.3H156V397l-8.4-11.4h-1.2V399h1.1v-11.5L156,399z"/>
<path class="st1" d="M174.6,399.2c2.2,0,3.7-0.9,4.9-2.4l-1-0.6c-0.8,1.2-2.3,1.9-3.9,1.9c-3.1,0-5.5-2.4-5.5-5.9
	c0-3.5,2.4-5.9,5.5-5.9c1.6,0,3.1,0.8,3.9,1.9l1-0.6c-1.1-1.4-2.7-2.4-4.9-2.4c-3.7,0-6.7,2.8-6.7,6.9S170.9,399.2,174.6,399.2z"/>
<path class="st1" d="M189.9,399h8.5v-1H191v-5.3h7.2v-1H191v-4.9h7.3v-1h-8.5V399z"/>
<path class="st1" d="M222.3,399h1.1v-13.3h-1.1V399z"/>
<path class="st1" d="M234,397.1c1,1.2,2.7,2.1,4.9,2.1c3.6,0,4.7-2.1,4.7-3.8c0-2.7-2.4-3.4-4.5-4c-1.8-0.5-3.5-0.9-3.5-2.5
	c0-1.4,1.3-2.5,3.1-2.5c1.5,0,2.9,0.5,3.8,1.7l0.8-0.8c-1-1.2-2.5-1.9-4.5-1.9c-2.4,0-4.4,1.4-4.4,3.6c0,2.5,2.2,3.1,4.3,3.6
	c1.9,0.5,3.7,1,3.7,2.9c0,1.1-0.8,2.7-3.5,2.7c-1.9,0-3.3-0.9-4.2-1.9L234,397.1z"/>
<path class="st1" d="M144.9,421h8.5v-1h-7.3v-5.3h7.2v-1h-7.2v-4.9h7.3v-1h-8.5V421z"/>
<path class="st1" d="M168.3,421h1.4l5.5-13.3h-1.3l-4.9,12.1l-4.8-12.1h-1.3L168.3,421z"/>
<path class="st1" d="M185.2,421h8.5v-1h-7.3v-5.3h7.2v-1h-7.2v-4.9h7.3v-1h-8.5V421z"/>
<path class="st1" d="M212.3,421h1.4l-3.9-5.6c2-0.1,3.7-1.4,3.7-3.8c0-2.4-1.8-3.9-4.1-3.9h-5V421h1.1v-5.5h2.9L212.3,421z
	 M212.3,411.6c0,1.7-1.2,2.9-3,2.9h-3.7v-5.7h3.7C211.1,408.7,212.3,409.9,212.3,411.6z"/>
<path class="st1" d="M228,421h1.2v-5.7l5.3-7.6H233l-4.5,6.6l-4.5-6.6h-1.4l5.3,7.6V421z"/>
<path class="st1" d="M247.8,421h1.2v-12.3h4.4v-1h-9.9v1h4.4V421z"/>
<path class="st1" d="M273.3,421h1.2v-13.3h-1.2v6h-8.5v-6h-1.1V421h1.1v-6.3h8.5V421z"/>
<path class="st1" d="M285.7,421h1.1v-13.3h-1.1V421z"/>
<path class="st1" d="M307.7,421h1.1v-13.3h-1.1V419l-8.4-11.4h-1.2V421h1.1v-11.5L307.7,421z"/>
<path class="st1" d="M319.7,414.3c0,4.1,3,6.9,6.8,6.9c2.1,0,3.9-0.9,5.1-2.2v-4.7h-6.2v1h5v3.2c-0.7,0.7-2.1,1.6-3.9,1.6
	c-3.1,0-5.6-2.4-5.6-5.9c0-3.5,2.4-5.9,5.6-5.9c1.7,0,3.2,0.7,4.2,1.9l0.9-0.6c-1.2-1.4-2.8-2.3-5-2.3
	C322.7,407.4,319.7,410.2,319.7,414.3z"/>
</svg>
